images/favicon.svg

<svg width="225" height="97" viewBox="0 0 225 97" fill="none" xmlns="http://www.w3.org/2000/svg">
<path d="M0 91.97C15.78 80.14 30.84 67.15 47.48 56.69C86.12 32.38 128.79 17.87 173.4 9.07999C189.33 5.92999 205.54 4.15999 221.62 1.73999C222.76 1.55999 223.88 1.21 225 0.940002V1.94C209.6 5.27 194 8.00001 178.82 12.04C126.37 25.99 78.17 48.58 37.95 85.68C29.12 93.82 20.55 97.22 9.25 95.89C5.93 95.5 2.19 96.83 0 92.98V91.97Z" fill="#583BFD"/>
<path d="M111.58 93.57C110.593 94.3886 109.528 95.1088 108.4 95.72C107.589 95.8982 106.751 95.9254 105.93 95.8C98.12 95.8 89.33 97.99 82.74 95.13C73.07 90.94 64.98 83.13 55.5 76.31L71.11 63.9L111.58 93.57Z" fill="#583BFD"/>
<path d="M51.14 49.31C45.34 52.42 40.03 55.42 34.55 58.08C33.8497 58.3404 33.0999 58.4406 32.3557 58.3731C31.6116 58.3056 30.8921 58.0721 30.25 57.69C21.68 51.69 13.25 45.44 4.82001 39.17C3.91001 38.5 3.46001 37.17 2.82001 36.17C3.91001 35.66 4.99 34.72 6.09 34.7C13.76 34.58 21.42 34.6 29.09 34.7C30.2377 34.697 31.3621 35.0232 32.33 35.64C38.53 40.05 44.72 44.59 51.14 49.31Z" fill="#583BFD"/>
</svg>

<svg id="Laag_1" data-name="Laag 1" xmlns="http://www.w3.org/2000/svg" viewBox="0 0 225 97"><defs><style>.cls-1{fill:#474862;}</style></defs><path class="cls-1" d="M0,92C15.78,80.14,30.84,67.15,47.48,56.69,86.12,32.38,128.79,17.87,173.4,9.08c15.93-3.15,32.14-4.92,48.22-7.34,1.14-.18,2.26-.53,3.38-.8v1C209.6,5.27,194,8,178.82,12,126.37,26,78.17,48.58,38,85.68c-8.83,8.14-17.4,11.54-28.7,10.21C5.93,95.5,2.19,96.83,0,93Z"/><path class="cls-1" d="M111.58,93.57a19.51,19.51,0,0,1-3.18,2.15,6.62,6.62,0,0,1-2.47.08c-7.81,0-16.6,2.19-23.19-.67C73.07,90.94,65,83.13,55.5,76.31L71.11,63.9Z"/><path class="cls-1" d="M51.14,49.31c-5.8,3.11-11.11,6.11-16.59,8.77a5,5,0,0,1-2.19.29,4.91,4.91,0,0,1-2.11-.68c-8.57-6-17-12.25-25.43-18.52-.91-.67-1.36-2-2-3C3.91,35.66,5,34.72,6.09,34.7c7.67-.12,15.33-.1,23,0a6,6,0,0,1,3.24.94C38.53,40.05,44.72,44.59,51.14,49.31Z"/></svg>
